X:1
T:12
L:1/8
Q:1/4=96
M:4/4
K:G
V:1 treble nm="Piano" snm="Pno."
V:1
 B2 G>A B4 | GB AG D2 z2 | d2 d2 e>d Bd | BE GB A2 z2 | D2 D2 B, D2 E | GG AB E2 D2 | %6
 A2 A2 d>e B2 | AG DA G2 z2 |] %8

